Numix-GalliumOS/16/mimetypes/application-font.svg

<?xml version="1.0" encoding="UTF-8" standalone="no"?>
<svg
   xmlns:dc="http://purl.org/dc/elements/1.1/"
   xmlns:cc="http://creativecommons.org/ns#"
   xmlns:rdf="http://www.w3.org/1999/02/22-rdf-syntax-ns#"
   xmlns:svg="http://www.w3.org/2000/svg"
   xmlns="http://www.w3.org/2000/svg"
   xmlns:sodipodi="http://sodipodi.sourceforge.net/DTD/sodipodi-0.dtd"
   xmlns:inkscape="http://www.inkscape.org/namespaces/inkscape"
   width="16"
   height="16"
   viewBox="0 0 16 16"
   id="svg2"
   version="1.1"
   inkscape:version="0.48.5 r10040"
   sodipodi:docname="application-font.svg">
  <metadata
     id="metadata16">
    <rdf:RDF>
      <cc:Work
         rdf:about="">
        <dc:format>image/svg+xml</dc:format>
        <dc:type
           rdf:resource="http://purl.org/dc/dcmitype/StillImage" />
      </cc:Work>
    </rdf:RDF>
  </metadata>
  <defs
     id="defs14" />
  <sodipodi:namedview
     pagecolor="#ffffff"
     bordercolor="#666666"
     borderopacity="1"
     objecttolerance="10"
     gridtolerance="10"
     guidetolerance="10"
     inkscape:pageopacity="0"
     inkscape:pageshadow="2"
     inkscape:window-width="1280"
     inkscape:window-height="970"
     id="namedview12"
     showgrid="true"
     inkscape:zoom="10.429825"
     inkscape:cx="-8.1707042"
     inkscape:cy="10.09945"
     inkscape:window-x="0"
     inkscape:window-y="0"
     inkscape:window-maximized="1"
     inkscape:current-layer="svg2">
    <inkscape:grid
       type="xygrid"
       id="grid3004" />
  </sodipodi:namedview>
  <path
     style="fill:#dcdcdc;fill-opacity:1"
     d="M 2.667969,-4.46e-4 C 2.324219,-4.46e-4 2,0.337812 2,0.6964467 L 2,15.303108 C 2,15.641365 2.34375,16 2.667969,16 l 10.664062,0 C 13.65625,16 14,15.641365 14,15.303108 L 14,3.9995538 10,-4.46e-4 z"
     id="path4"
     inkscape:connector-curvature="0"
     sodipodi:nodetypes="ssssssccs" />
  <path
     style="fill:#000000;fill-opacity:0.19599998"
     d="m 10.583223,3.3315848 0.0154,0.01953 0.04005,-0.01953 z m 0.02978,0.667969 3.387,3.664062 0,-3.664062 z"
     id="path6"
     inkscape:connector-curvature="0"
     sodipodi:nodetypes="cccccccc" />
  <path
     style="fill:#545454"
     d="m 10.159929,5 -0.4715868,5.691857 c -0.024605,0.266549 -0.036907,0.438782 -0.036907,0.524897 0,0.135325 0.020504,0.237845 0.065612,0.307558 0.061511,0.09842 0.1394253,0.168131 0.2378436,0.21734 0.098418,0.04511 0.2665492,0.06972 0.5043942,0.06972 L 10.405976,12 l -2.4481557,0 0.049209,-0.188636 0.1066203,0 c 0.1968365,0 0.360867,-0.04511 0.4838893,-0.139425 0.090217,-0.06561 0.15993,-0.172232 0.2091391,-0.31986 0.032806,-0.102523 0.065612,-0.348564 0.094318,-0.734036 l 0.073813,-0.8693608 -1.77973,0 -0.6315178,0.9431748 c -0.1476274,0.213239 -0.2378436,0.364967 -0.2706497,0.459285 -0.036908,0.09022 -0.057411,0.176333 -0.057411,0.258348 0,0.10662 0.041008,0.200937 0.1189219,0.274752 0.082016,0.07792 0.2132406,0.118921 0.3936731,0.127122 L 6.6988874,12 l -1.8412427,0 0.05331,-0.188636 c 0.2255422,-0.0082 0.4223787,-0.09022 0.5946112,-0.246045 0.176333,-0.15993 0.4346802,-0.492092 0.7750437,-1.004687 L 10,5 10.159929,5 m -0.9103686,1.6813117 -1.8002345,2.6983015 1.5623899,0 0.2378446,-2.6983015"
     id="path10"
     inkscape:connector-curvature="0" />
  <path
     style="fill:#ffffff;fill-opacity:0.39200003"
     d="m 10,-4.46e-4 3.996396,3.9999998 -3.383784,0 C 10.313513,3.9995538 10,3.6824368 10,3.3833378 z"
     id="path8"
     inkscape:connector-curvature="0"
     sodipodi:nodetypes="ccssc" />
</svg>

<svg xmlns="http://www.w3.org/2000/svg" viewBox="0 0 16 16">
 <path d="m 2.668 0 c -0.344 0 -0.668 0.338 -0.668 0.697 l 0 14.607 c 0 0.338 0.344 0.697 0.668 0.697 l 10.664 0 c 0.324 0 0.668 -0.359 0.668 -0.697 l 0 -11.304 -4 -4 z" style="fill:#dcdcdc;fill-opacity:1"/>
 <path d="m 10.583 3.332 0.015 0.02 0.04 -0.02 z m 0.03 0.668 3.387 3.664 0 -3.664 z" style="fill:#000;fill-opacity:0.196"/>
 <path d="m 10.16 5 -0.472 5.692 c -0.025 0.267 -0.037 0.439 -0.037 0.525 0 0.135 0.021 0.238 0.066 0.308 0.062 0.098 0.139 0.168 0.238 0.217 0.098 0.045 0.267 0.07 0.504 0.07 l -0.053 0.189 l -2.448 0 0.049 -0.189 0.107 0 c 0.197 0 0.361 -0.045 0.484 -0.139 0.09 -0.066 0.16 -0.172 0.209 -0.32 0.033 -0.103 0.066 -0.349 0.094 -0.734 l 0.074 -0.869 -1.78 0 -0.632 0.943 c -0.148 0.213 -0.238 0.365 -0.271 0.459 -0.037 0.09 -0.057 0.176 -0.057 0.258 0 0.107 0.041 0.201 0.119 0.275 0.082 0.078 0.213 0.119 0.394 0.127 l -0.049 0.189 l -1.841 0 0.053 -0.189 c 0.226 -0.008 0.422 -0.09 0.595 -0.246 0.176 -0.16 0.435 -0.492 0.775 -1 l 3.719 -5.561 0.16 0 m -0.91 1.681 -1.8 2.698 1.562 0 0.238 -2.698" style="fill:#555;fill-opacity:1"/>
 <path d="m 10 0 3.996 4 -3.384 0 c -0.299 0 -0.613 -0.317 -0.613 -0.616 z" style="fill:#fff;fill-opacity:0.392"/>
</svg>
